svgs/sharp-solid/object-ungroup.svg

<svg xmlns="http://www.w3.org/2000/svg" viewBox="0 0 640 512"><!--! Font Awesome Pro 6.6.0 by @fontawesome - https://fontawesome.com License - https://fontawesome.com/license (Commercial License) Copyright 2024 Fonticons, Inc. --><path d="M128 0L0 0 0 128l32 0 0 96L0 224 0 352l128 0 0-32 192 0 0 32 128 0 0-128-32 0 0-96 32 0L448 0 320 0l0 32L128 32l0-32zM352 224l0 32-32 0-192 0-32 0 0-32 0-96 0-32 32 0 192 0 32 0 0 32 0 96zM320 512l0-32 192 0 0 32 128 0 0-128-32 0 0-96 32 0 0-128-128 0 0 32-32 0 0 64 32 0 32 0 0 32 0 96 0 32-32 0-32 0-160 0-32 0 0-32 0-32-64 0 0 32-32 0 0 128 128 0z"/></svg>

<svg xmlns="http://www.w3.org/2000/svg" viewBox="0 0 640 512"><!--! Font Awesome Pro 6.4.2 by @fontawesome - https://fontawesome.com License - https://fontawesome.com/license (Commercial License) Copyright 2023 Fonticons, Inc. --><path d="M128 0H0V128H32v96H0V352H128V320H320v32H448V224H416V128h32V0H320V32H128V0zM352 224v32H320 128 96V224 128 96h32H320h32v32 96zM320 512V480H512v32H640V384H608V288h32V160H512v32H480v64h32 32v32 96 32H512 480 320 288V384 352H224v32H192V512H320z"/></svg>
